assets/src/images/discover.svg

<svg width="750" height="471" viewBox="0 0 750 471" version="1.1" xmlns="http://www.w3.org/2000/svg" xmlns:xlink="http://www.w3.org/1999/xlink">
    <!-- Generator: Sketch 48.2 (47327) - http://www.bohemiancoding.com/sketch -->
    <desc>Created with Sketch.</desc>
    <defs></defs>
    <g id="Page-1" stroke="none" stroke-width="1" fill="none" fill-rule="evenodd">
        <g id="discover" fill-rule="nonzero">
            <path d="M52.8771038,0 C23.6793894,0 -4.55476115e-15,23.1545612 0,51.7102589 L0,419.289737 C0,447.850829 23.671801,471 52.8771038,471 L697.122894,471 C726.320615,471 750,447.845433 750,419.289737 L750,252.475404 L750,51.7102589 C750,23.1491677 726.328202,-4.4533018e-15 697.122894,0 L52.8771038,0 Z" id="Shape" fill="#4D4D4D"></path>
            <path d="M314.569558,152.198414 C323.06625,152.198414 330.192577,153.9309 338.865308,158.110254 L338.865308,180.197198 C330.650269,172.563549 323.523875,169.368926 314.100058,169.368926 C295.577115,169.368926 281.009615,183.944539 281.009615,202.424438 C281.009615,221.911997 295.126279,235.620254 315.018404,235.620254 C323.972798,235.620254 330.967135,232.591128 338.865308,225.080186 L338.865308,247.178497 C329.883538,251.197965 322.604577,252.785079 314.100058,252.785079 C284.025202,252.785079 260.655798,230.849701 260.655798,202.560947 C260.655798,174.577103 284.647269,152.198414 314.569558,152.198414 Z M221.191404,152.807038 C232.293048,152.807038 242.451462,156.418802 250.944635,163.479831 L240.609981,176.340655 C235.465019,170.859895 230.599394,168.547945 224.682615,168.547945 C216.169885,168.547936 209.970327,173.154235 209.970327,179.215049 C209.970327,184.413218 213.450798,187.164422 225.302356,191.332621 C247.768529,199.141028 254.426462,206.064868 254.426462,221.354473 C254.426462,239.986821 240.026981,252.955721 219.503077,252.955721 C204.47426,252.955721 193.548154,247.330452 184.44824,234.636213 L197.205529,222.956624 C201.754702,231.315341 209.342452,235.792799 218.763144,235.792799 C227.573971,235.792799 234.097058,230.014421 234.097058,222.217168 C234.097058,218.175392 232.121269,214.709536 228.175702,212.259183 C226.189231,211.099073 222.254519,209.369382 214.522615,206.777734 C195.973058,200.43062 189.609,193.646221 189.609,180.386799 C189.609,164.636126 203.275981,152.807038 221.191404,152.807038 Z M446.886269,154.485036 L468.460788,154.485036 L495.464615,219.130417 L522.815885,154.485036 L544.22701,154.485036 L500.482644,253.198414 L489.855019,253.198414 L446.886269,154.485036 Z M64.8212135,154.632923 L93.811974,154.632923 C125.842394,154.632923 148.170827,174.418596 148.170827,202.822609 C148.170827,216.985567 141.340038,230.679389 129.788913,239.766893 C120.068962,247.437722 108.994192,250.877669 93.6598558,250.877669 L64.8212135,250.877669 L64.8212135,154.632923 Z M157.25849,154.632923 L177.009462,154.632923 L177.009462,250.877669 L157.25849,250.877669 L157.25849,154.632923 Z M553.156923,154.632923 L609.168423,154.632923 L609.168423,170.940741 L572.892875,170.940741 L572.892875,192.303392 L607.831279,192.303392 L607.831279,208.603619 L572.892875,208.603619 L572.892875,234.583122 L609.168423,234.583122 L609.168423,250.877669 L553.156923,250.877669 L553.156923,154.632923 Z M622.250596,154.632923 L651.534327,154.632923 C674.313452,154.632923 687.366663,165.030007 687.366663,183.048838 C687.366663,197.784414 679.179923,207.454847 664.302885,210.332805 L696.176385,250.877669 L671.888144,250.877669 L644.551904,212.213673 L641.977163,212.213673 L641.977163,250.877669 L622.250596,250.877669 L622.250596,154.632923 Z M641.977163,169.791736 L641.977163,198.939525 L647.748269,198.939525 C660.360308,198.939525 667.044769,193.734406 667.044769,184.05942 C667.044769,174.693052 660.359106,169.791736 648.060019,169.791736 L641.977163,169.791736 Z M84.5571663,170.940741 L84.5571663,234.583122 L89.8568962,234.583122 C102.619538,234.583122 110.679663,232.259105 116.885144,226.934514 C123.71575,221.152572 127.824519,211.920423 127.824519,202.684197 C127.824519,193.462833 123.71575,184.505917 116.885144,178.723975 C110.361615,173.113074 102.619538,170.940741 89.8568962,170.940741 L84.5571663,170.940741 Z" id="Shape" fill="#FFFFFF"></path>
            <path d="M399.164288,151.559424 C428.914452,151.559424 453.031096,173.727429 453.031096,201.112187 L453.031096,201.143399 C453.031096,228.528147 428.914452,250.727374 399.164288,250.727374 C369.414125,250.727374 345.297481,228.528147 345.297481,201.143399 L345.297481,201.112187 C345.297481,173.727429 369.414125,151.559424 399.164288,151.559424 Z M749.982612,271.093939 C724.934651,288.327133 537.408564,411.490963 212.719237,470.985071 L697.105507,470.985071 C726.303228,470.985071 749.982612,447.830504 749.982612,419.274807 L749.982612,271.093939 Z" id="Shape" fill="#F47216"></path>
        </g>
    </g>
</svg>

<svg xmlns="http://www.w3.org/2000/svg" width="750" height="471"><g fill="none"><path d="M52.9 0C23.7 0 0 23.2 0 51.7v367.6C0 447.9 23.7 471 52.9 471h644.2c29.2 0 52.9-23.2 52.9-51.7V51.7C750 23.1 726.3 0 697.1 0H52.9z" fill="#4D4D4D"/><path d="M314.6 152.2c8.5 0 15.6 1.7 24.3 5.9v22.1c-8.2-7.6-15.4-10.8-24.8-10.8-18.5 0-33.1 14.5-33.1 33 0 19.5 14.1 33.2 34 33.2 9 0 16-3 23.9-10.5v22.1c-9 4-16.3 5.6-24.8 5.6-30.1 0-53.4-22-53.4-50.2 0-28 23.9-50.4 53.9-50.4zm-93.4.6c11.1 0 21.3 3.6 29.7 10.7l-10.3 12.8c-5.1-5.4-10-7.8-15.9-7.8-8.5 0-14.7 4.7-14.7 10.7 0 5.2 3.5 8 15.3 12.1 22.5 7.8 29.1 14.8 29.1 30.1 0 18.6-14.4 31.6-34.9 31.6-15 0-26-5.7-35.1-18.4l12.8-11.6c4.6 8.3 12.1 12.8 21.6 12.8 8.8 0 15.3-5.8 15.3-13.6 0-4-2-7.5-5.9-9.9-2-1.2-5.9-2.9-13.7-5.5-18.5-6.4-24.9-13.2-24.9-26.4 0-15.8 13.7-27.6 31.6-27.6zm225.7 1.7h21.6l27 64.6 27.3-64.6h21.4l-43.7 98.7h-10.6l-43-98.7zm-382.1.1h29c32 0 54.4 19.8 54.4 48.2 0 14.2-6.9 27.9-18.4 37-9.7 7.6-20.8 11.1-36.1 11.1H64.8v-96.3zm92.5 0H177v96.3h-19.7v-96.3zm395.9 0h56v16.3h-36.3v21.4h34.9v16.3h-34.9v26h36.3v16.3h-56v-96.3zm69.1 0h29.2c22.8 0 35.9 10.4 35.9 28.4 0 14.8-8.2 24.5-23.1 27.3l31.9 40.6h-24.3l-27.3-38.7H642v38.7h-19.7v-96.3zm19.7 15.2v29.1h5.7c12.7 0 19.3-5.2 19.3-14.8 0-9.4-6.6-14.3-18.9-14.3H642zm-557.4 1.1v63.7h5.3c12.7 0 20.8-2.3 27-7.7 6.8-5.7 10.9-15 10.9-24.2s-4.1-18.2-10.9-24c-6.5-5.6-14.3-7.8-27-7.8h-5.3z" fill="#FFF"/><path d="M399.2 151.6c29.7 0 53.8 22.1 53.8 49.5s-24.1 49.6-53.8 49.6c-29.8 0-53.9-22.2-53.9-49.6 0-27.4 24.1-49.5 53.9-49.5zM750 271.1C724.9 288.3 537.4 411.5 212.7 471h484.4c29.2 0 52.9-23.2 52.9-51.7V271.1z" fill="#F47216"/></g></svg>
